src/assets/iceberg.svg

<?xml version="1.0" encoding="UTF-8"?>
<!DOCTYPE svg PUBLIC "-//W3C//DTD SVG 1.1//EN" "http://www.w3.org/Graphics/SVG/1.1/DTD/svg11.dtd">
<svg xmlns="http://www.w3.org/2000/svg" version="1.1" width="800px" height="218px" style="shape-rendering:geometricPrecision; text-rendering:geometricPrecision; image-rendering:optimizeQuality; fill-rule:evenodd; clip-rule:evenodd" xmlns:xlink="http://www.w3.org/1999/xlink">
<g><path style="opacity:0.973" fill="#b8e1f3" d="M 764.5,63.5 C 750.833,63.5 737.167,63.5 723.5,63.5C 723.5,61.5 723.5,59.5 723.5,57.5C 728.607,57.8345 732.94,57.5012 736.5,56.5C 734.073,54.4424 731.407,52.6091 728.5,51C 706.167,50.3333 683.833,50.3333 661.5,51C 657.764,52.4098 654.098,53.9098 650.5,55.5C 647.053,57.0541 645.053,59.7208 644.5,63.5C 659.833,63.5 675.167,63.5 690.5,63.5C 690.173,73.6806 690.506,83.6806 691.5,93.5C 691.5,97.8333 691.5,102.167 691.5,106.5C 691.167,106.5 690.833,106.5 690.5,106.5C 672.032,98.7651 653.699,90.7651 635.5,82.5C 648.016,76.4095 660.683,70.5762 673.5,65C 663.506,64.5002 653.506,64.3335 643.5,64.5C 635.016,63.507 626.349,63.1736 617.5,63.5C 634.269,36.5202 658.769,22.8535 691,22.5C 723.231,22.8535 747.731,36.5202 764.5,63.5 Z"/></g>
<g><path style="opacity:1" fill="#f5fafd" d="M 736.5,56.5 C 707.662,56.8313 678.995,56.498 650.5,55.5C 654.098,53.9098 657.764,52.4098 661.5,51C 683.833,50.3333 706.167,50.3333 728.5,51C 731.407,52.6091 734.073,54.4424 736.5,56.5 Z"/></g>
<g><path style="opacity:1" fill="#eaf7fd" d="M 650.5,55.5 C 678.995,56.498 707.662,56.8313 736.5,56.5C 732.94,57.5012 728.607,57.8345 723.5,57.5C 723.5,59.5 723.5,61.5 723.5,63.5C 712.5,63.5 701.5,63.5 690.5,63.5C 675.167,63.5 659.833,63.5 644.5,63.5C 645.053,59.7208 647.053,57.0541 650.5,55.5 Z"/></g>
<g><path style="opacity:1" fill="#4b94cb" d="M 617.5,63.5 C 626.349,63.1736 635.016,63.507 643.5,64.5C 643.5,65.1667 643.167,65.5 642.5,65.5C 634.167,64.8333 625.833,64.1667 617.5,63.5 Z"/></g>
<g><path style="opacity:0.943" fill="#277abe" d="M 93.5,64.5 C 109.262,62.1412 122.429,66.8079 133,78.5C 136.303,83.7664 138.47,89.4331 139.5,95.5C 133.491,95.6662 127.491,95.4995 121.5,95C 117.224,83.3565 108.89,78.6899 96.5,81C 86.9435,83.5919 81.1102,89.7586 79,99.5C 75.8119,112.574 78.6452,124.074 87.5,134C 94.6349,138.68 102.302,139.68 110.5,137C 115.697,134.637 119.363,130.803 121.5,125.5C 127.463,124.504 133.463,124.171 139.5,124.5C 136.714,141.119 127.048,150.952 110.5,154C 78.8394,156.182 61.8394,141.349 59.5,109.5C 60.03,86.0258 71.3633,71.0258 93.5,64.5 Z"/></g>
<g><path style="opacity:0.933" fill="#277abe" d="M 538.5,64.5 C 554.494,62.3299 567.994,66.9965 579,78.5C 581.937,82.3736 583.771,86.7069 584.5,91.5C 578.491,91.6662 572.491,91.4995 566.5,91C 562.094,83.7438 555.594,80.2438 547,80.5C 532.301,81.1976 523.968,88.8643 522,103.5C 519.598,129.436 531.098,140.602 556.5,137C 564.296,133.714 568.296,127.881 568.5,119.5C 560.833,119.5 553.167,119.5 545.5,119.5C 545.5,114.167 545.5,108.833 545.5,103.5C 559.167,103.5 572.833,103.5 586.5,103.5C 588.848,141.656 571.182,158.156 533.5,153C 513.502,145.533 503.502,131.033 503.5,109.5C 503.94,85.5663 515.606,70.5663 538.5,64.5 Z"/></g>
<g><path style="opacity:0.985" fill="#277abe" d="M 617.5,63.5 C 625.833,64.1667 634.167,64.8333 642.5,65.5C 640.013,70.4734 637.513,75.4734 635,80.5C 636.926,89.255 640.26,97.5884 645,105.5C 650.7,114.257 656.867,122.591 663.5,130.5C 663.569,135.854 663.902,141.187 664.5,146.5C 664.351,147.552 664.517,148.552 665,149.5C 673.707,158.704 682.207,168.037 690.5,177.5C 691.077,178.773 691.743,178.773 692.5,177.5C 699.178,166.139 705.845,154.806 712.5,143.5C 717.46,139.712 722.293,135.712 727,131.5C 727.5,122.506 727.666,113.506 727.5,104.5C 733.833,97.1667 740.167,89.8333 746.5,82.5C 746.804,81.8501 747.137,81.1835 747.5,80.5C 745.5,75.5 743.5,70.5 741.5,65.5C 749.472,64.5023 757.472,64.169 765.5,64.5C 777.293,84.3207 780.793,105.654 776,128.5C 767.539,160.962 747.372,182.462 715.5,193C 672.603,202.376 639.103,188.876 615,152.5C 602.206,127.892 600.539,102.559 610,76.5C 612.022,71.7768 614.522,67.4434 617.5,63.5 Z"/></g>
<g><path style="opacity:1" fill="#68c1ea" d="M 723.5,64.5 C 723.5,73.8333 723.5,83.1667 723.5,92.5C 713.663,97.3434 703.663,102.01 693.5,106.5C 692.833,106.5 692.5,106.833 692.5,107.5C 692.167,107.5 691.833,107.5 691.5,107.5C 691.5,107.167 691.5,106.833 691.5,106.5C 691.5,102.167 691.5,97.8333 691.5,93.5C 691.5,83.8333 691.5,74.1667 691.5,64.5C 702.167,64.5 712.833,64.5 723.5,64.5 Z"/></g>
<g><path style="opacity:1" fill="#4e8bc9" d="M 723.5,63.5 C 737.167,63.5 750.833,63.5 764.5,63.5C 765.167,63.5 765.5,63.8333 765.5,64.5C 757.472,64.169 749.472,64.5023 741.5,65.5C 743.5,70.5 745.5,75.5 747.5,80.5C 747.137,81.1835 746.804,81.8501 746.5,82.5C 738.712,85.5608 731.045,88.8941 723.5,92.5C 723.5,83.1667 723.5,73.8333 723.5,64.5C 723.5,64.1667 723.5,63.8333 723.5,63.5 Z"/></g>
<g><path style="opacity:0.982" fill="#277abe" d="M 22.5,66.5 C 28.1667,66.5 33.8333,66.5 39.5,66.5C 39.5,95.1667 39.5,123.833 39.5,152.5C 33.8333,152.5 28.1667,152.5 22.5,152.5C 22.5,123.833 22.5,95.1667 22.5,66.5 Z"/></g>
<g><path style="opacity:0.949" fill="#277abe" d="M 158.5,66.5 C 179.5,66.5 200.5,66.5 221.5,66.5C 221.5,71.8333 221.5,77.1667 221.5,82.5C 206.5,82.5 191.5,82.5 176.5,82.5C 176.5,88.5 176.5,94.5 176.5,100.5C 190.833,100.5 205.167,100.5 219.5,100.5C 219.5,105.833 219.5,111.167 219.5,116.5C 205.167,116.5 190.833,116.5 176.5,116.5C 176.5,123.5 176.5,130.5 176.5,137.5C 191.833,137.5 207.167,137.5 222.5,137.5C 222.5,142.5 222.5,147.5 222.5,152.5C 201.167,152.5 179.833,152.5 158.5,152.5C 158.5,123.833 158.5,95.1667 158.5,66.5 Z"/></g>
<g><path style="opacity:0.963" fill="#277abe" d="M 243.5,66.5 C 258.837,66.3334 274.17,66.5001 289.5,67C 308.073,71.3134 314.24,82.4801 308,100.5C 305.463,103.372 302.63,105.872 299.5,108C 311.481,112.791 315.981,121.624 313,134.5C 309.463,144.697 302.296,150.53 291.5,152C 275.503,152.5 259.503,152.667 243.5,152.5C 243.5,123.833 243.5,95.1667 243.5,66.5 Z M 260.5,81.5 C 268.507,81.3336 276.507,81.5003 284.5,82C 292.503,84.1968 294.836,89.0301 291.5,96.5C 289.869,98.2974 287.869,99.4641 285.5,100C 277.173,100.5 268.84,100.666 260.5,100.5C 260.5,94.1667 260.5,87.8333 260.5,81.5 Z M 260.5,115.5 C 269.879,115.224 279.212,115.724 288.5,117C 295.944,120.665 297.777,126.165 294,133.5C 292.065,135.102 289.899,136.269 287.5,137C 278.506,137.5 269.506,137.666 260.5,137.5C 260.5,130.167 260.5,122.833 260.5,115.5 Z"/></g>
<g><path style="opacity:0.955" fill="#277abe" d="M 333.5,66.5 C 354.5,66.5 375.5,66.5 396.5,66.5C 396.5,71.8333 396.5,77.1667 396.5,82.5C 381.5,82.5 366.5,82.5 351.5,82.5C 351.5,88.5 351.5,94.5 351.5,100.5C 365.833,100.5 380.167,100.5 394.5,100.5C 394.5,105.833 394.5,111.167 394.5,116.5C 380.167,116.5 365.833,116.5 351.5,116.5C 351.5,123.5 351.5,130.5 351.5,137.5C 366.5,137.5 381.5,137.5 396.5,137.5C 396.5,142.5 396.5,147.5 396.5,152.5C 375.5,152.5 354.5,152.5 333.5,152.5C 333.5,123.833 333.5,95.1667 333.5,66.5 Z"/></g>
<g><path style="opacity:0.967" fill="#277abe" d="M 418.5,66.5 C 434.882,66.0767 451.215,66.5767 467.5,68C 485.266,75.2681 491.099,88.1014 485,106.5C 481.5,112.667 476.667,117.5 470.5,121C 477.5,131.333 484.5,141.667 491.5,152C 484.5,152.667 477.5,152.667 470.5,152C 464.251,142.837 458.251,133.503 452.5,124C 446.843,123.501 441.176,123.334 435.5,123.5C 435.5,133.167 435.5,142.833 435.5,152.5C 429.833,152.5 424.167,152.5 418.5,152.5C 418.5,123.833 418.5,95.1667 418.5,66.5 Z M 435.5,81.5 C 444.975,80.9891 454.309,81.8225 463.5,84C 469.879,89.1003 471.046,95.267 467,102.5C 465.421,104.041 463.587,105.208 461.5,106C 452.916,107.41 444.25,107.91 435.5,107.5C 435.5,98.8333 435.5,90.1667 435.5,81.5 Z"/></g>
<g><path style="opacity:1" fill="#a2d8f1" d="M 690.5,63.5 C 701.5,63.5 712.5,63.5 723.5,63.5C 723.5,63.8333 723.5,64.1667 723.5,64.5C 712.833,64.5 702.167,64.5 691.5,64.5C 691.5,74.1667 691.5,83.8333 691.5,93.5C 690.506,83.6806 690.173,73.6806 690.5,63.5 Z"/></g>
<g><path style="opacity:1" fill="#90d4f0" d="M 643.5,64.5 C 653.506,64.3335 663.506,64.5002 673.5,65C 660.683,70.5762 648.016,76.4095 635.5,82.5C 653.699,90.7651 672.032,98.7651 690.5,106.5C 690.141,108.371 689.141,109.871 687.5,111C 679.021,116.985 671.021,123.485 663.5,130.5C 656.867,122.591 650.7,114.257 645,105.5C 640.26,97.5884 636.926,89.255 635,80.5C 637.513,75.4734 640.013,70.4734 642.5,65.5C 643.167,65.5 643.5,65.1667 643.5,64.5 Z"/></g>
<g><path style="opacity:1" fill="#266fa8" d="M 746.5,82.5 C 740.167,89.8333 733.833,97.1667 727.5,104.5C 716.812,105.28 706.145,106.28 695.5,107.5C 694.584,107.457 693.917,107.124 693.5,106.5C 703.663,102.01 713.663,97.3434 723.5,92.5C 731.045,88.8941 738.712,85.5608 746.5,82.5 Z"/></g>
<g><path style="opacity:1" fill="#4d8ac8" d="M 727.5,104.5 C 727.666,113.506 727.5,122.506 727,131.5C 722.293,135.712 717.46,139.712 712.5,143.5C 712.167,142.833 711.833,142.167 711.5,141.5C 704.628,130.419 698.295,119.086 692.5,107.5C 692.5,106.833 692.833,106.5 693.5,106.5C 693.917,107.124 694.584,107.457 695.5,107.5C 706.145,106.28 716.812,105.28 727.5,104.5 Z"/></g>
<g><path style="opacity:1" fill="#abdcf1" d="M 690.5,106.5 C 690.833,106.5 691.167,106.5 691.5,106.5C 691.5,106.833 691.5,107.167 691.5,107.5C 691.5,115.5 691.5,123.5 691.5,131.5C 691.167,131.5 690.833,131.5 690.5,131.5C 681.502,131.119 672.502,130.786 663.5,130.5C 671.021,123.485 679.021,116.985 687.5,111C 689.141,109.871 690.141,108.371 690.5,106.5 Z"/></g>
<g><path style="opacity:1" fill="#54a5d7" d="M 691.5,107.5 C 691.833,107.5 692.167,107.5 692.5,107.5C 698.295,119.086 704.628,130.419 711.5,141.5C 704.456,138.721 697.789,135.388 691.5,131.5C 691.5,123.5 691.5,115.5 691.5,107.5 Z"/></g>
<g><path style="opacity:1" fill="#b6e0f2" d="M 663.5,130.5 C 672.502,130.786 681.502,131.119 690.5,131.5C 690.5,138.833 690.5,146.167 690.5,153.5C 683.125,152.66 675.791,151.493 668.5,150C 666.973,148.968 665.64,147.801 664.5,146.5C 663.902,141.187 663.569,135.854 663.5,130.5 Z"/></g>
<g><path style="opacity:1" fill="#58afde" d="M 690.5,131.5 C 690.833,131.5 691.167,131.5 691.5,131.5C 697.789,135.388 704.456,138.721 711.5,141.5C 711.833,142.167 712.167,142.833 712.5,143.5C 705.734,146.382 699.067,149.549 692.5,153C 691.544,156.394 691.211,159.894 691.5,163.5C 690.521,160.375 690.187,157.042 690.5,153.5C 690.5,146.167 690.5,138.833 690.5,131.5 Z"/></g>
<g><path style="opacity:1" fill="#266fa8" d="M 712.5,143.5 C 705.845,154.806 699.178,166.139 692.5,177.5C 691.743,178.773 691.077,178.773 690.5,177.5C 691.486,173.03 691.819,168.363 691.5,163.5C 691.211,159.894 691.544,156.394 692.5,153C 699.067,149.549 705.734,146.382 712.5,143.5 Z"/></g>
<g><path style="opacity:1" fill="#8fd3f0" d="M 664.5,146.5 C 665.64,147.801 666.973,148.968 668.5,150C 675.791,151.493 683.125,152.66 690.5,153.5C 690.187,157.042 690.521,160.375 691.5,163.5C 691.819,168.363 691.486,173.03 690.5,177.5C 682.207,168.037 673.707,158.704 665,149.5C 664.517,148.552 664.351,147.552 664.5,146.5 Z"/></g>
</svg>

<svg xmlns="http://www.w3.org/2000/svg" width="800" height="218" style="shape-rendering:geometricPrecision;text-rendering:geometricPrecision;image-rendering:optimizeQuality;fill-rule:evenodd;clip-rule:evenodd"><path fill="#b8e1f3" d="M764.5 63.5h-41v-6q7.66.501 13-1a49 49 0 0 0-8-5.5 1122 1122 0 0 0-67 0 215 215 0 0 0-11 4.5q-5.17 2.33-6 8h46q-.49 15.27 1 30v13h-1a2023 2023 0 0 1-55-24 984 984 0 0 1 38-17.5q-14.991-.75-30-.5-12.726-1.49-26-1 25.154-40.47 73.5-41 48.347.53 73.5 41" style="opacity:.973"/><path fill="#f5fafd" d="M736.5 56.5q-43.257.497-86-1 5.396-2.385 11-4.5 33.5-1 67 0a49 49 0 0 1 8 5.5" style="opacity:1"/><path fill="#eaf7fd" d="M650.5 55.5q42.743 1.497 86 1-5.34 1.501-13 1v6h-79q.83-5.67 6-8" style="opacity:1"/><path fill="#4b94cb" d="M617.5 63.5q13.274-.49 26 1 0 1-1 1z" style="opacity:1"/><path fill="#277abe" d="M93.5 64.5q23.643-3.538 39.5 14 4.955 7.9 6.5 17-9.014.25-18-.5-6.414-17.466-25-14Q82.165 84.888 79 99.5q-4.782 19.611 8.5 34.5 10.703 7.02 23 3 7.795-3.545 11-11.5a82 82 0 0 1 18-1q-4.178 24.928-29 29.5-47.49 3.273-51-44.5.795-35.211 34-45" style="opacity:.943"/><path fill="#277abe" d="M538.5 64.5q23.991-3.255 40.5 14 4.406 5.81 5.5 13-9.014.25-18-.5-6.609-10.884-19.5-10.5-22.048 1.046-25 23-3.603 38.904 34.5 33.5 11.694-4.929 12-17.5h-23v-16h41q3.523 57.234-53 49.5-29.997-11.2-30-43.5.66-35.901 35-45" style="opacity:.933"/><path fill="#277abe" d="m617.5 63.5 25 2-7.5 15q2.89 13.132 10 25a257 257 0 0 0 18.5 25q.103 8.03 1 16a4.93 4.93 0 0 0 .5 3 995 995 0 0 1 25.5 28q.865 1.91 2 0a64338 64338 0 0 1 20-34 242 242 0 0 0 14.5-12q.75-13.491.5-27l19-22q.456-.975 1-2l-6-15a145 145 0 0 1 24-1q17.69 29.73 10.5 64-12.692 48.693-60.5 64.5-64.346 14.064-100.5-40.5-19.191-36.912-5-76 3.033-7.085 7.5-13" style="opacity:.985"/><path fill="#68c1ea" d="M723.5 64.5v28a798 798 0 0 1-30 14q-1 0-1 1h-1v-43z" style="opacity:1"/><path fill="#4e8bc9" d="M723.5 63.5h41q1 0 1 1a145 145 0 0 0-24 1l6 15q-.544 1.025-1 2a351 351 0 0 0-23 10z" style="opacity:1"/><path fill="#277abe" d="M22.5 66.5h17v86h-17z" style="opacity:.982"/><path fill="#277abe" d="M158.5 66.5h63v16h-45v18h43v16h-43v21h46v15h-64z" style="opacity:.949"/><path fill="#277abe" d="M243.5 66.5q23.005-.25 46 .5 27.86 6.47 18.5 33.5a45.3 45.3 0 0 1-8.5 7.5q17.971 7.186 13.5 26.5-5.306 15.295-21.5 17.5-23.995.75-48 .5zm17 15q12.01-.25 24 .5 12.004 3.295 7 14.5-2.446 2.696-6 3.5-12.49.75-25 .5zm0 34q14.068-.414 28 1.5 11.166 5.498 5.5 16.5a18.6 18.6 0 0 1-6.5 3.5q-13.491.75-27 .5z" style="opacity:.963"/><path fill="#277abe" d="M333.5 66.5h63v16h-45v18h43v16h-43v21h45v15h-63z" style="opacity:.955"/><path fill="#277abe" d="M418.5 66.5a434 434 0 0 1 49 1.5q26.649 10.902 17.5 38.5-5.25 9.25-14.5 14.5l21 31q-10.5 1-21 0a613 613 0 0 1-18-28 145 145 0 0 0-17-.5v29h-17zm17 15a98 98 0 0 1 28 2.5q9.569 7.65 3.5 18.5a15.8 15.8 0 0 1-5.5 3.5 124 124 0 0 1-26 1.5z" style="opacity:.967"/><path fill="#a2d8f1" d="M690.5 63.5h33v1h-32v29q-1.49-14.73-1-30" style="opacity:1"/><path fill="#90d4f0" d="M643.5 64.5q15.009-.25 30 .5a984 984 0 0 0-38 17.5 2023 2023 0 0 0 55 24q-.539 2.807-3 4.5a227 227 0 0 0-24 19.5 257 257 0 0 1-18.5-25q-7.11-11.868-10-25l7.5-15q1 0 1-1" style="opacity:1"/><path fill="#266fa8" d="m746.5 82.5-19 22a779 779 0 0 0-32 3q-1.374-.064-2-1a798 798 0 0 0 30-14 351 351 0 0 1 23-10" style="opacity:1"/><path fill="#4d8ac8" d="M727.5 104.5q.25 13.509-.5 27a242 242 0 0 1-14.5 12l-1-2a426 426 0 0 1-19-34q0-1 1-1 .626.936 2 1a779 779 0 0 1 32-3" style="opacity:1"/><path fill="#abdcf1" d="M690.5 106.5h1v25h-1q-13.497-.571-27-1a227 227 0 0 1 24-19.5q2.461-1.694 3-4.5" style="opacity:1"/><path fill="#54a5d7" d="M691.5 107.5h1a426 426 0 0 0 19 34 125.6 125.6 0 0 1-20-10z" style="opacity:1"/><path fill="#b6e0f2" d="M663.5 130.5q13.503.429 27 1v22a252 252 0 0 1-22-3.5 20.7 20.7 0 0 1-4-3.5 162 162 0 0 1-1-16" style="opacity:1"/><path fill="#58afde" d="M690.5 131.5h1a125.6 125.6 0 0 0 20 10l1 2a273 273 0 0 0-20 9.5q-1.434 5.091-1 10.5-1.469-4.687-1-10z" style="opacity:1"/><path fill="#266fa8" d="M712.5 143.5a64338 64338 0 0 0-20 34q-1.135 1.91-2 0 1.479-6.705 1-14-.434-5.409 1-10.5a273 273 0 0 1 20-9.5" style="opacity:1"/><path fill="#8fd3f0" d="M664.5 146.5a20.7 20.7 0 0 0 4 3.5 252 252 0 0 0 22 3.5q-.469 5.313 1 10 .479 7.295-1 14a995 995 0 0 0-25.5-28 4.93 4.93 0 0 1-.5-3" style="opacity:1"/></svg>
